img/news_events.svg

<svg height="171" viewBox="0 0 501 171" width="501" xmlns="http://www.w3.org/2000/svg"><g fill="#fff"><g transform="translate(218.502284 .7)"><path d="m279.194565 126.624655c-3.987791-2.707759-12.258764-6.301693-21.957464-6.301693-8.812524 0-19.348168 3.49547-19.348168 14.818826 0 11.864908 12.012603 13.046475 22.252855 13.686491 7.040173.590784 11.815676 1.575423 11.815676 6.104766 0 4.381646-4.726271 6.646317-10.68334 6.646317-9.452541 0-16.098858-4.72627-20.037417-7.877117l-5.809373 7.040173c5.464749 4.430879 13.588026 9.255613 25.699094 9.255613 11.471051 0 21.071288-4.529343 21.071288-16.049626 0-12.898779-13.292635-13.883419-21.859-14.474203-6.104766-.492319-12.258763-.787711-12.258763-4.923198 0-3.98779 4.135486-5.710909 8.812524-5.710909 7.729421 0 13.588027 2.953918 16.39425 5.021662zm-86.549823 4.037023h16.985034v37.859393h10.240252v-37.859393h16.886569v-8.861757h-44.111855zm-13.834187-8.861757v28.997637h-.049232l-23.828278-28.997637h-8.812525v46.770382h10.289484v-28.948405h.049232l23.779047 28.948405h8.861756v-46.770382zm-48.985821 17.969673h-17.231193v-9.107916h28.702245v-8.861757h-38.942497v46.770382h40.616384v-8.812524h-30.376132v-11.17566h17.231193zm-40.9117761-17.969673-14.5726664 33.920835h-.4430879l-14.5234344-33.920835h-11.6187475l21.7113036 46.770382h8.8617566l21.7113041-46.770382zm-54.9428909 17.969673h-17.2311934v-9.107916h28.702245v-8.861757h-38.9424971v46.770382h40.6163844v-8.812524h-30.3761323v-11.17566h17.2311934z"/><path d="m112.642773 99.5470658v-29.0468689h11.372587c5.513982 0 8.024813 1.3784955 10.387948 3.7416306 2.560063 2.658527 3.938559 6.3509256 3.938559 10.8310358 0 4.7262702-1.575424 8.4679008-4.283182 11.1756597-2.412368 2.1662072-4.677039 3.3477748-10.043325 3.3477748h-11.372587zm11.766443 8.8125242c8.812525 0 13.883419-2.363135 17.920441-6.153997 4.381647-4.2831826 6.744782-10.4371802 6.744782-17.2311936 0-6.5970855-2.215439-12.4556912-6.301694-16.6896416-4.135486-4.2339504-9.747932-6.6463175-18.314297-6.6463175h-21.957463v46.7703817h21.908231zm-37.0224496-46.7211497v28.9976369h-.0492319l-23.8775109-28.9976369h-8.8125246v46.7703817h10.2894841v-28.9484045h.0492319l23.7790469 28.9484045h8.8617566v-46.7703817zm-61.7861362 12.2095313h.4430878l7.0894053 16.5419457h-14.6218984zm-25.6006302 34.5116184h10.8310358l4.2339504-9.8956278h21.6128397l4.2831824 9.8956278h11.2248917l-21.7113037-46.7703817h-8.8125246z"/><path d="m204.165026 6.30169358c-3.987791-2.70775896-12.258764-6.30169358-21.957464-6.30169358-8.812525 0-19.348169 3.49547066-19.348169 14.8188263 0 11.8649075 12.012604 13.046475 22.252856 13.6864908 7.040173.5907837 11.815675 1.5754233 11.815675 6.1047656 0 4.3816463-4.72627 6.6463175-10.68334 6.6463175-9.45254 0-16.098857-4.7262702-20.037416-7.877117l-5.809374 7.0401733c5.46475 4.4308783 13.588027 9.2556124 25.699095 9.2556124 11.471051 0 21.071287-4.5293422 21.071287-16.0496258 0-12.8987791-13.292634-13.8834187-21.858999-14.4742025-6.104766-.4923198-12.258763-.7877117-12.258763-4.9231981 0-3.9877904 4.135486-5.71090977 8.812524-5.71090977 7.729421 0 13.588027 2.95391887 16.39425 5.02166207zm-108.6057507-4.82473415 14.9665227 46.77038207h9.747932l8.71406-27.7668374h.443088l8.812525 27.7668374h9.747932l14.966522-46.77038207h-10.732571l-9.058685 30.67152427h-.443088l-9.501772-30.72075625h-7.532493l-9.600237 30.72075625h-.443087l-8.960221-30.72075625h-11.1264277zm-13.8341867 17.96967307h-17.2311934v-9.1079165h28.702245v-8.86175657h-38.942497v46.77038207h40.6163844v-8.8617566h-30.3761324v-11.1756597h17.2311934zm-42.5364316-17.96967307v28.99763687h-.049232l-23.8282789-28.99763687h-8.8125246v46.77038207h10.2894841v-28.9484049h.0492319l23.7790469 28.9484049h8.8617566v-46.77038207z"/></g><path d="m31.469988 75.335683h87.534462v19.594329h-87.534462z"/><path d="m31.51922 1.044624h157.394644v19.594329h-157.394644z"/><path d="m.7 38.165538h70.647893v19.594329h-70.647893z"/><path d="m17.537338 112.456597h70.647893v19.594329h-70.647893z"/><path d="m31.469988 149.626743h174.921229v19.594329h-174.921229z"/></g></svg>

<?xml version="1.0" encoding="UTF-8"?>
<svg width="501px" height="171px" viewBox="0 0 501 171" version="1.1" xmlns="http://www.w3.org/2000/svg" xmlns:xlink="http://www.w3.org/1999/xlink">
    <title>news_events</title>
    <g id="Page-1" stroke="none" stroke-width="1" fill="none" fill-rule="evenodd">
        <g id="news_events" transform="translate(0.700000, 0.700000)" fill="#FFFFFF" fill-rule="nonzero">
            <g id="Group" transform="translate(217.802284, 0.000000)">
                <path d="M279.194565,126.624655 C275.206774,123.916896 266.935801,120.322962 257.237101,120.322962 C248.424577,120.322962 237.888933,123.818432 237.888933,135.141788 C237.888933,147.006696 249.901536,148.188263 260.141788,148.828279 C267.181961,149.419063 271.957464,150.403702 271.957464,154.933045 C271.957464,159.314691 267.231193,161.579362 261.274124,161.579362 C251.821583,161.579362 245.175266,156.853092 241.236707,153.702245 L235.427334,160.742418 C240.892083,165.173297 249.01536,169.998031 261.126428,169.998031 C272.597479,169.998031 282.197716,165.468688 282.197716,153.948405 C282.197716,141.049626 268.905081,140.064986 260.338716,139.474202 C254.23395,138.981883 248.079953,138.686491 248.079953,134.551004 C248.079953,130.563214 252.215439,128.840095 256.892477,128.840095 C264.621898,128.840095 270.480504,131.794013 273.286727,133.861757 L279.194565,126.624655 Z M192.644742,130.661678 L209.629776,130.661678 L209.629776,168.521071 L219.870028,168.521071 L219.870028,130.661678 L236.756597,130.661678 L236.756597,121.799921 L192.644742,121.799921 L192.644742,130.661678 Z M178.810555,121.799921 L178.810555,150.797558 L178.761323,150.797558 L154.933045,121.799921 L146.12052,121.799921 L146.12052,168.570303 L156.410004,168.570303 L156.410004,139.621898 L156.459236,139.621898 L180.238283,168.570303 L189.100039,168.570303 L189.100039,121.799921 L178.810555,121.799921 Z M129.824734,139.769594 L112.593541,139.769594 L112.593541,130.661678 L141.295786,130.661678 L141.295786,121.799921 L102.353289,121.799921 L102.353289,168.570303 L142.969673,168.570303 L142.969673,159.757779 L112.593541,159.757779 L112.593541,148.582119 L129.824734,148.582119 L129.824734,139.769594 Z M88.9129579,121.799921 L74.3402915,155.720756 L73.8972036,155.720756 L59.3737692,121.799921 L47.7550217,121.799921 L69.4663253,168.570303 L78.3280819,168.570303 L100.039386,121.799921 L88.9129579,121.799921 Z M33.970067,139.769594 L16.7388736,139.769594 L16.7388736,130.661678 L45.4411186,130.661678 L45.4411186,121.799921 L6.4986215,121.799921 L6.4986215,168.570303 L47.1150059,168.570303 L47.1150059,159.757779 L16.7388736,159.757779 L16.7388736,148.582119 L33.970067,148.582119 L33.970067,139.769594 L33.970067,139.769594 Z" id="Shape"></path>
                <path d="M112.642773,99.5470658 L112.642773,70.5001969 L124.01536,70.5001969 C129.529342,70.5001969 132.040173,71.8786924 134.403308,74.2418275 C136.963371,76.9003545 138.341867,80.5927531 138.341867,85.0728633 C138.341867,89.7991335 136.766443,93.5407641 134.058685,96.248523 C131.646317,98.4147302 129.381646,99.5962978 124.01536,99.5962978 L112.642773,99.5962978 L112.642773,99.5470658 Z M124.409216,108.35959 C133.221741,108.35959 138.292635,105.996455 142.329657,102.205593 C146.711304,97.9224104 149.074439,91.7684128 149.074439,84.9743994 C149.074439,78.3773139 146.859,72.5187082 142.772745,68.2847578 C138.637259,64.0508074 133.024813,61.6384403 124.458448,61.6384403 L102.500985,61.6384403 L102.500985,108.408822 L124.409216,108.408822 L124.409216,108.35959 Z M87.3867664,61.6384403 L87.3867664,90.6360772 L87.3375345,90.6360772 L63.4600236,61.6384403 L54.647499,61.6384403 L54.647499,108.408822 L64.9369831,108.408822 L64.9369831,79.4604175 L64.986215,79.4604175 L88.7652619,108.408822 L97.6270185,108.408822 L97.6270185,61.6384403 L87.3867664,61.6384403 L87.3867664,61.6384403 Z M25.6006302,73.8479716 L26.043718,73.8479716 L33.1331233,90.3899173 L18.5112249,90.3899173 L25.6006302,73.8479716 Z M-2.79851412e-14,108.35959 L10.8310358,108.35959 L15.0649862,98.4639622 L36.6778259,98.4639622 L40.9610083,108.35959 L52.1859,108.35959 L30.4745963,61.5892083 L21.6620717,61.5892083 L-2.79851412e-14,108.35959 Z" id="Shape"></path>
                <path d="M204.165026,6.30169358 C200.177235,3.59393462 191.906262,5.24721398e-15 182.207562,5.24721398e-15 C173.395037,5.24721398e-15 162.859393,3.49547066 162.859393,14.8188263 C162.859393,26.6837338 174.871997,27.8653013 185.112249,28.5053171 C192.152422,29.0961008 196.927924,30.0807404 196.927924,34.6100827 C196.927924,38.991729 192.201654,41.2564002 186.244584,41.2564002 C176.792044,41.2564002 170.145727,36.53013 166.207168,33.3792832 L160.397794,40.4194565 C165.862544,44.8503348 173.985821,49.6750689 186.096889,49.6750689 C197.56794,49.6750689 207.168176,45.1457267 207.168176,33.6254431 C207.168176,20.726664 193.875542,19.7420244 185.309177,19.1512406 C179.204411,18.6589208 173.050414,18.3635289 173.050414,14.2280425 C173.050414,10.2402521 177.1859,8.51713273 181.862938,8.51713273 C189.592359,8.51713273 195.450965,11.4710516 198.257188,13.5387948 L204.165026,6.30169358 Z M95.5592753,1.47695943 L110.525798,48.2473415 L120.27373,48.2473415 L128.98779,20.4805041 L129.430878,20.4805041 L138.243403,48.2473415 L147.991335,48.2473415 L162.957857,1.47695943 L152.225286,1.47695943 L143.166601,32.1484837 L142.723513,32.1484837 L133.221741,1.42772745 L125.689248,1.42772745 L116.089011,32.1484837 L115.645924,32.1484837 L106.685703,1.42772745 L95.5592753,1.42772745 L95.5592753,1.47695943 Z M81.7250886,19.4466325 L64.4938952,19.4466325 L64.4938952,10.338716 L93.1961402,10.338716 L93.1961402,1.47695943 L54.2536432,1.47695943 L54.2536432,48.2473415 L94.8700276,48.2473415 L94.8700276,39.3855849 L64.4938952,39.3855849 L64.4938952,28.2099252 L81.7250886,28.2099252 L81.7250886,19.4466325 L81.7250886,19.4466325 Z M39.188657,1.47695943 L39.188657,30.4745963 L39.139425,30.4745963 L15.3111461,1.47695943 L6.4986215,1.47695943 L6.4986215,48.2473415 L16.7881056,48.2473415 L16.7881056,19.2989366 L16.8373375,19.2989366 L40.6163844,48.2473415 L49.478141,48.2473415 L49.478141,1.47695943 L39.188657,1.47695943 Z" id="Shape"></path>
            </g>
            <rect id="Rectangle" x="30.7699882" y="74.6356833" width="87.5344624" height="19.5943285"></rect>
            <rect id="Rectangle" x="30.8192202" y="0.344623868" width="157.394644" height="19.5943285"></rect>
            <rect id="Rectangle" x="-2.09888559e-14" y="37.4655376" width="70.6478929" height="19.5943285"></rect>
            <rect id="Rectangle" x="16.8373375" y="111.756597" width="70.6478929" height="19.5943285"></rect>
            <rect id="Rectangle" x="30.7699882" y="148.926743" width="174.921229" height="19.5943285"></rect>
        </g>
    </g>
</svg>
